X: 26331
T: Men Of The West, The
R: waltz
M: 3/4
K: Dmajor
|:A,2|D6|F3 E D2|D3 F A2|B4 d2|A3 F E2|D3 E FA|B,6|B,4 A,2|
D6|F3 E D2|Dd- d2 cA|B4 d2|A3 F D2|F4 E2|D6|D4:|
|:FG|A3 B A2|AB c4|c2 d4|d3 c BA|A3 F E2|D3 E FA|B,6|B,4 A,2|
[1 A3 B A2|AB c4|c2 d4|d3 c BA|A3 F D2|F4 E2|D6|D4:|
[2 D6|F3 E D2|Dd- d2 cA|B4 d2|A3 F D2|F4 E2|D6|D4||

